X: 141
T:Les dames de Paris
M:6/8
L:1/8
Q:100
O:FRANCE
A:Ile de France
K:G
DDD|B2BA2A|G2 z BBB|
d2d c2c|B2 z ddd|e2e c2c|
B2cBBB|c2A AAA|D2D GGG|
G2DBBB|B2G d2e|d2d cBA|G3||
W:
W: From "Falaleiro" http://home.t-online.de/home/pheld/homepage.htm
